X:1
T:Polska e Ola Lans 
T:(SvL Skne nr. 1010)
R:Polska
C:Ola Nilsson Lans
O:Sjrup, Skne
B:Svenska ltar
S:Omtyckta Sknska Allspelsltar
Z:Patrik Mnsson, 2008-11-24
M:3/4
L:1/16
K:C
(e2|: [e2A2])a2 a2g2 (gag^f) |(ed)e^f (ga)gf e2(e2 | [eA]2)a2 a2g2 (ga)g^f |
|[1 (ed)e^f (ga)gf e2 (e2:|[2 (ed)e^f (ga)gf e4]|: [BGG,]4 [eA]4 c2G2 | (cd)e=f (ga)gf e4 |
A2a2 g2^f2 e2d2 |[1 dcBc d4 [cE]4:|[2 dcBc d4 [cE]4]|
